svgs/thin/meter.svg

<svg xmlns="http://www.w3.org/2000/svg" viewBox="0 0 512 512"><!--! Font Awesome Pro 6.4.0 by @fontawesome - https://fontawesome.com License - https://fontawesome.com/license (Commercial License) Copyright 2023 Fonticons, Inc. --><path d="M496 256A240 240 0 1 0 16 256a240 240 0 1 0 480 0zM0 256a256 256 0 1 1 512 0A256 256 0 1 1 0 256zm176-96c0-8.8-7.2-16-16-16s-16 7.2-16 16v32c0 8.8 7.2 16 16 16s16-7.2 16-16V160zm-48 0c0-17.7 14.3-32 32-32s32 14.3 32 32v32c0 17.7-14.3 32-32 32s-32-14.3-32-32V160zm144 32V160c0-8.8-7.2-16-16-16s-16 7.2-16 16v32c0 8.8 7.2 16 16 16s16-7.2 16-16zm-16-64c17.7 0 32 14.3 32 32v32c0 17.7-14.3 32-32 32s-32-14.3-32-32V160c0-17.7 14.3-32 32-32zm112 32c0-8.8-7.2-16-16-16s-16 7.2-16 16v32c0 8.8 7.2 16 16 16s16-7.2 16-16V160zm-48 0c0-17.7 14.3-32 32-32s32 14.3 32 32v32c0 17.7-14.3 32-32 32s-32-14.3-32-32V160z"/></svg>

<svg xmlns="http://www.w3.org/2000/svg" viewBox="0 0 512 512"><!--! Font Awesome Pro 6.3.0 by @fontawesome - https://fontawesome.com License - https://fontawesome.com/license (Commercial License) Copyright 2023 Fonticons, Inc. --><path d="M128 160C128 142.3 142.3 128 160 128C177.7 128 192 142.3 192 160V192C192 209.7 177.7 224 160 224C142.3 224 128 209.7 128 192V160zM160 144C151.2 144 144 151.2 144 160V192C144 200.8 151.2 208 160 208C168.8 208 176 200.8 176 192V160C176 151.2 168.8 144 160 144zM288 160V192C288 209.7 273.7 224 256 224C238.3 224 224 209.7 224 192V160C224 142.3 238.3 128 256 128C273.7 128 288 142.3 288 160zM272 192V160C272 151.2 264.8 144 256 144C247.2 144 240 151.2 240 160V192C240 200.8 247.2 208 256 208C264.8 208 272 200.8 272 192zM320 160C320 142.3 334.3 128 352 128C369.7 128 384 142.3 384 160V192C384 209.7 369.7 224 352 224C334.3 224 320 209.7 320 192V160zM352 144C343.2 144 336 151.2 336 160V192C336 200.8 343.2 208 352 208C360.8 208 368 200.8 368 192V160C368 151.2 360.8 144 352 144zM512 256C512 397.4 397.4 512 256 512C114.6 512 0 397.4 0 256C0 114.6 114.6 0 256 0C397.4 0 512 114.6 512 256zM256 16C123.5 16 16 123.5 16 256C16 388.5 123.5 496 256 496C388.5 496 496 388.5 496 256C496 123.5 388.5 16 256 16z"/></svg>
